!!!OTL@@DE: Zufriedenheit
!!!ONB: 2. Melodie
!!!COM: Mozart, Wolfgang Amadeus
!!!CDT: -1791///
!!!OMD: M&auml;ssig
!!!LYR: Miller, Joh. Martin
!!!LDT: 1776
!!!OCL: Erk, Ludwig
!!!GCO: Deutscher Liederschatz, Band 1
**kern	**kern	**kern
*staff3	*staff2	*staff1
*Ipiano	*Ipiano	*Ivox
*>[P,A,A]	*>[P,A,A]	*>[P,A,A]
*>P	*>P	*>P
*clefF4	*clefG2	*clefG2
*k[f#]	*k[f#]	*k[f#]
*G:	*G:	*G:
*M6/8	*M6/8	*M6/8
*MM88	*MM88	*MM88
8GG/ 8G/L	8b\ 8gg\L	4r
8GG/ 8G/	8b\ 8gg\	.
8GG/ 8G/J	8dd\ 8bb\J	8r
4GG/ 4G/	4b\ 4gg\	4r
=	=	=
*>A	*>A	*>A
8r	8r	8d/
=1	=1	=1
4GG/ 4G/	(8B/L	(8dd\L
.	8d/	8b\J)
8r	8g/J)	8g/
4GG/ 4G/	(8c/L	(8e/L
.	8e/	8cc/J)
8r	8g/J)	8b\
=2	=2	=2
4GG/ 4G/	(8A/L	(8a\L
.	8c/	8dd\J)
8r	8f#/J)	8cc\
4GG/ 4G/	(8B/L	4b\
.	8d/	.
8r	8g/J)	8b\
=3	=3	=3
4F#\	(8a/L	8a\L
.	8d/	8dd\J
8D\	8f#/) 8a/J	8a/
(8G\L	(8e/ 8g/L	(8g/L
8A\)	8d/) 8f#/	8f#/J)
8AA\J	8c#/ 8e/J	8e/
=4	=4	=4
4D\	16d/LL	4d/
.	16f#/	.
.	16g/	.
.	16a/	.
8r	16b/	8r
.	16cc#/JJ	.
4r	8dd\	4r
.	8r	.
8r	8r	8dd\
=5	=5	=5
4D\	(8A/L	4a/
.	8d/	.
8Cn/	8f#/J)	8a/
4BB/	(8B/L	(8b/L
.	8d/	8a/J)
8E\	8g#/J)	8b\
=6	=6	=6
4AA/	(8c/L	4cc\
.	8e/	.
8r	8a/J)	8dd\
4r	(8c/L	4ee\
.	8e/	.
8r	8a/J)	(16cc\LL
.	.	16a\JJ)
=7	=7	=7
4D\	(8A/L	4f#/
.	8d/	.
8C/	8f#/J)	8f#/
4BB/	(8B/L	(8g/L
.	8d/	8a/J)
8GG/	8g/J)	8b\
=8	=8	=8
4D\	16f#/LL	4a/
.	16d/	.
.	16f#/	.
.	16a/	.
8r	16cc#/	8r
.	16dd/JJ	.
4r	4d/	4r
8r	8r	8a/
=9	=9	=9
4G\	(8B/L	4b\
.	8d/	.
8Fn\	8g/J)	8b\
4E\	(8c/L	(8cc\L
.	8e/	8b\J)
8r	8g/J)	8cc\
=10	=10	=10
4.BB/	(8d/L	4dd\
.	8fn/	.
.	8g/J)	8dd#\
4C/	(8c/L	4ee\
.	8e/	.
8r	8g/J)	8ee\
=11	=11	=11
4.C/	(8A/L	(8ddn/L
.	8d/	8f#/J)
.	8f#/J)	8f#/
8BB/	(8g/L	(8g/L
4C/	8e/	8cc/J)
.	8c/J)	8a/
=12	=12	=12
4.D\	(8B/L	[4.g/
.	8d/	.
.	8g/J)	.
4.DD/	(8c/L	8g/L]
.	8d/	8b/J
.	8f#/J)	8a/
=13	=13	=13
4GG/	4B/ 4g/	4g/
8r	8r	8r
4r	4r	4r
==	==	==
*-	*-	*-
!!!ENC: Craig Stuart Sapp
!!!END: 2004/06/07/
!!!EFL: 112/651
